X: 478
T: Xiu hebao
%%abc-version 2.0
%%abcx-abcm2ps-target-version 5.9.1 (29 Sep 2008)
%%abc-creator hum2abc beta
%%abcx-conversion-date 2013/10/02 07:52:30
%%abc-edited-by Helmut Schaffrath
%%humdrum-veritas 2247152147
%%humdrum-veritas-data 118182760
%%continueall 1
%%barnumbers 0
L: 1/8
M: 2/4
K: G
A A A d [I:setbarnb 1]| 
A2G E | 
d c A A | 
D2C A, | 
A G A d | 
A G D E | 
E A D C | 
A,4 |]  



